X:1
T:O Blessèd Bible
T:Frank Marion Davis
T:O Blessèd Bible
T:Public Domain
T:Public Domain
C:Frank Marion Davis
Z:Public Domain
%%score ( 1 2 ) ( 3 4 )
L:1/8
M:6/8
K:Ab
V:1 treble 
V:2 treble 
V:3 bass 
V:4 bass 
V:1
 [CE] | [Ec]2 [Ec] ([Fd][Ec])[DB] | [CA]3 [CE]2 [CE] | [DF]2 [DA] (GA)[DB] | [CA]3- [CA]2 [CE] | %5
w: 1.~O|bless- èd, bless- * èd|Bi- ble, Our|trea- sured book * di-|With * hope,|
w: 2.~Our|chart up- on * life’s|o- cean, Our|com- pass day * by|The * lamp|
w: 3.~Thou|tell- est us * of|Je- sus, The|Son of God * a-|Who * came|
w: 4.~O|bless- èd, bless- * èd|Bi- ble, That|God Him- self * hath|To * fit|
 [Ec]2 [Ec] ([Fd][Ec])[DB] | [CA]3 [CE]2 [EA] | [EG]2 [EG] (BA)[_DF] | E3- E2 ||"^Refrain" E | %10
w: and joy, and * com-|fort, Thy pag-|es bright- ly * shine.|||
w: our feet di- * rect-|ing, The light|that guides our * way.|pre- *|still|
w: the world to * ran-|som, So great|His wond- rous * love.|||
w: us for His * king-|dom, Of end-|less life in * heaven.|||
 [Ed]2 [Ed] (dc)[EB] | [Ec]3 [EA]2 [EA] | [Ec]2 [Ec] [EB]2 [FA] | ([FA]3 [=EG]2) [EG] | %14
w: ||||
w: ru- bies, More * pure|pur- est gold,|Our bless- èd, bless-|èd * Bi-|
w: ||||
w: ||||
 F2 [DF] ([FA][EG])[DF] | [CE]3 [CA]2 [Ec] | [DB]2 [DF] ([DG][CA])[DB] | [CA]3- [CA]2 |] %18
w: ||||
w: ble, Thy worth * can|be told. *|||
w: ||||
w: ||||
V:2
 x | x6 | x6 | x3 D2 x | x6 | x6 | x6 | x3 =D2 x | E3- E2 || E | x3 E2 x | x6 | x6 | x6 | F2 x4 | %15
w: |||vine,||||||||||||
w: |||day,||||More|cious *|than|than||||ne’er|
w: |||bove,||||||||||||
w: |||giv’n,||||||||||||
 x6 | x6 | x5 |] %18
w: |||
w: |||
w: |||
w: |||
V:3
 [A,,A,] | [A,,A,]2 [A,,A,] [A,,A,]2 [A,,E,] | [A,,E,]3 [A,,A,]2 [A,,A,] | %3
 [D,A,]2 [D,F,] (E,F,)[E,G,] | [A,,A,]3- [A,,A,]2 [A,,A,] | [A,,A,]2 [A,,A,] [A,,A,]2 [A,,E,] | %6
 [A,,E,]3 [A,,A,]2 [A,,C] | [B,,B,]2 [B,,B,] [B,,F,]2 [B,,A,] | [E,G,]3- [E,G,]2 || [E,G,] | %10
 [E,B,]2 [E,B,] (B,A,)[E,G,] | [A,,A,]3 [A,,C]2 [A,,C] | A,2 A, [G,B,]2 [F,C] | %13
 [C,C]3- [C,C]2 [C,B,] | [D,A,]2 [D,A,] [D,A,]2 [D,A,] | [A,,A,]3 [A,,E,]2 [A,,A,] | %16
 [D,F,]2 [D,A,] E,2 E, | [A,,E,]3- [A,,E,]2 |] %18
V:4
 x | x6 | x6 | x3 E,2 x | x6 | x6 | x6 | x6 | x5 || x | x3 E,2 x | x6 | A,2 A, x3 | x6 | x6 | x6 | %16
 x3 E,2 E, | x5 |] %18

